X: 192127
T: Sliabh an Iarainn
C: Joe Liddy
Z: BB
S: "The Leitrim Fiddler" (Dublin 1981)
L: 1/8
M: 4/4
R: reel
Q: 1/4 = 180
K: Gdor
A | BG (3AGF DG G2 | Bcde fdcB | AF F2 DFEF | cFGF DFCF |
BG G2 AFGF | DGGA Bcde | fgaf gfdc | AcFG AGG :|
c | dg g2 dgfg | bgag fdde | f2 cf afge | fdcA GABc |
dg g2 dgfg | bgag fdde | fgaf gfdc | AcFG AG G2 ||
dg g2 dgfg | bgag fdde | f2 cf a2 ge | fdcA GABc | 
dg g2 dfgf | bgag fdde | fgaf gfdc | AcFG AG G2 ||
%%%%%%%%%%%%%%%%%%%%%%%%%
